X:187
M:C |
L:1/8
K:Dmin
c3d e2 (dc) | c6 e2 | fefd ede^c | d^cd=B ^cBcA | d3e f2 (ed) | d6 |]
M:3/4
L:1/8
"Minuet"
fe d2 f2 | e2a2A2 | d2e2f2 | edef e2 | fe d2f2 | e2a2A2 | d2 e2 ^c2 | d6 :|
ag f2 a2 | g2c'2c2 | f2g2a2 | gfga g2 | ag f2 a2 | g2 c'2c2 | f2g2e2 | f6 |]

